flaticon/weather/storm.svg

<svg xmlns="http://www.w3.org/2000/svg" width="32" height="32" viewBox="0 0 24 24">
    <path d="M14.78125 19.253906C14.738281 19.15625 14.660156 19.078125 14.5625 19.035156 14.515625 19.015625 14.460938 19.003906 14.410156 19.003906L12.976562 19.003906 16.292969 15.6875C16.453125 15.53125 16.453125 15.277344 16.292969 15.121094 16.136719 14.964844 15.886719 14.964844 15.730469 15.121094L11.726562 19.121094C11.6875 19.160156 11.660156 19.203125 11.640625 19.253906 11.597656 19.351562 11.597656 19.460938 11.640625 19.558594 11.679688 19.65625 11.757812 19.734375 11.855469 19.777344 11.90625 19.796875 11.957031 19.804688 12.007812 19.804688L13.445312 19.804688 11.324219 21.925781C11.167969 22.082031 11.167969 22.335938 11.324219 22.492188 11.402344 22.570312 11.503906 22.609375 11.609375 22.609375 11.710938 22.609375 11.8125 22.570312 11.890625 22.492188L14.691406 19.691406C14.730469 19.652344 14.757812 19.609375 14.78125 19.558594 14.820312 19.460938 14.820312 19.351562 14.78125 19.253906zM20.53125 13.519531L16.53125 17.519531C16.492188 17.558594 16.464844 17.601562 16.441406 17.652344 16.402344 17.75 16.402344 17.859375 16.441406 17.957031 16.484375 18.054688 16.5625 18.132812 16.660156 18.175781 16.707031 18.195312 16.761719 18.207031 16.8125 18.207031L18.246094 18.207031 16.128906 20.324219C15.972656 20.480469 15.972656 20.734375 16.128906 20.890625 16.207031 20.96875 16.308594 21.007812 16.410156 21.007812 16.515625 21.007812 16.617188 20.96875 16.695312 20.890625L19.496094 18.089844C19.535156 18.050781 19.5625 18.007812 19.582031 17.957031 19.625 17.859375 19.625 17.75 19.582031 17.652344 19.542969 17.554688 19.464844 17.476562 19.367188 17.433594 19.316406 17.414062 19.265625 17.40625 19.214844 17.40625L17.777344 17.40625 21.097656 14.085938C21.253906 13.929688 21.253906 13.675781 21.097656 13.519531 20.941406 13.363281 20.6875 13.363281 20.53125 13.519531zM21.1875 6.539062C21.097656 4.082031 19.074219 2.109375 16.59375 2.109375 15.171875 2.109375 13.898438 2.757812 13.054688 3.773438 11.9375 2.273438 10.210938 1.390625 8.316406 1.390625 5.050781 1.390625 2.394531 4.046875 2.394531 7.3125 2.394531 8.859375 2.988281 10.292969 4.039062 11.382812 2.675781 11.550781 1.421875 12.324219.667969 13.566406-.648438 15.734375.0429688 18.574219 2.210938 19.890625 2.277344 19.929688 2.347656 19.949219 2.417969 19.949219 2.554688 19.949219 2.6875 19.878906 2.761719 19.757812 2.875 19.566406 2.816406 19.320312 2.628906 19.207031.835938 18.117188.265625 15.773438 1.351562 13.980469 2.230469 12.535156 3.9375 11.855469 5.554688 12.277344 5.734375 12.851562 6.074219 13.378906 6.570312 13.789062 6.644531 13.851562 6.734375 13.882812 6.824219 13.882812 6.941406 13.882812 7.054688 13.832031 7.132812 13.734375 7.273438 13.566406 7.25 13.3125 7.078125 13.171875 6.671875 12.835938 6.40625 12.394531 6.285156 11.921875 6.285156 11.914062 6.28125 11.90625 6.28125 11.902344 6.273438 11.875 6.265625 11.851562 6.261719 11.824219 6.222656 11.652344 6.207031 11.476562 6.207031 11.300781 6.207031 11.277344 6.210938 11.253906 6.210938 11.234375 6.210938 11.171875 6.214844 11.113281 6.222656 11.054688 6.226562 11.019531 6.230469 10.980469 6.238281 10.945312 6.246094 10.898438 6.253906 10.855469 6.261719 10.808594 6.269531 10.769531 6.28125 10.730469 6.289062 10.691406 6.300781 10.648438 6.316406 10.609375 6.328125 10.566406 6.339844 10.527344 6.355469 10.488281 6.367188 10.453125 6.386719 10.410156 6.402344 10.367188 6.421875 10.324219 6.4375 10.289062 6.453125 10.253906 6.46875 10.222656 6.496094 10.175781 6.523438 10.128906 6.550781 10.082031 6.566406 10.054688 6.582031 10.027344 6.597656 10 6.644531 9.929688 6.695312 9.859375 6.753906 9.789062 7.066406 9.410156 7.476562 9.144531 7.925781 9.011719 8.253906 8.914062 8.605469 8.890625 8.953125 8.941406 8.839844 9.410156 8.828125 9.910156 8.945312 10.414062 8.988281 10.597656 9.15625 10.722656 9.335938 10.722656 9.367188 10.722656 9.398438 10.71875 9.429688 10.710938 9.644531 10.660156 9.777344 10.445312 9.726562 10.230469 9.613281 9.746094 9.65625 9.265625 9.816406 8.832031L9.820312 8.824219C9.828125 8.804688 9.839844 8.785156 9.847656 8.765625 9.875 8.695312 9.90625 8.625 9.941406 8.5625 9.953125 8.539062 9.964844 8.515625 9.980469 8.496094 10.011719 8.4375 10.046875 8.378906 10.085938 8.320312 10.101562 8.304688 10.113281 8.285156 10.125 8.265625 10.175781 8.195312 10.230469 8.125 10.289062 8.0625 10.355469 7.992188 10.421875 7.925781 10.492188 7.867188 10.5 7.859375 10.507812 7.855469 10.515625 7.847656 10.574219 7.796875 10.636719 7.75 10.703125 7.703125 10.71875 7.691406 10.738281 7.679688 10.753906 7.667969 10.8125 7.632812 10.875 7.597656 10.933594 7.5625 10.957031 7.550781 10.976562 7.539062 11 7.527344 11.058594 7.5 11.121094 7.472656 11.1875 7.445312 11.207031 7.4375 11.230469 7.429688 11.253906 7.421875 11.335938 7.390625 11.421875 7.363281 11.507812 7.34375 11.511719 7.34375 11.511719 7.339844 11.515625 7.339844 11.648438 7.308594 11.78125 7.292969 11.917969 7.285156 11.921875 7.285156 11.929688 7.28125 11.933594 7.28125 12.070312 7.277344 12.210938 7.28125 12.351562 7.296875L12.472656 7.3125C13.394531 7.472656 14.175781 8.164062 14.402344 9.128906 14.453125 9.34375 14.667969 9.476562 14.886719 9.425781 15.101562 9.375 15.234375 9.160156 15.183594 8.945312 14.894531 7.726562 13.945312 6.839844 12.800781 6.566406 12.804688 6.453125 12.8125 6.339844 12.824219 6.226562 12.832031 6.191406 12.835938 6.15625 12.84375 6.117188 12.867188 5.972656 12.894531 5.832031 12.933594 5.691406 12.9375 5.675781 12.941406 5.660156 12.945312 5.648438 12.996094 5.484375 13.054688 5.320312 13.125 5.164062 13.128906 5.160156 13.128906 5.152344 13.132812 5.148438 13.203125 4.996094 13.28125 4.847656 13.371094 4.703125 13.386719 4.679688 13.398438 4.660156 13.414062 4.636719L13.449219 4.578125C14.132812 3.574219 15.289062 2.910156 16.59375 2.910156 18.632812 2.910156 20.296875 4.527344 20.386719 6.542969 18.816406 6.746094 17.59375 8.089844 17.59375 9.71875 17.59375 9.9375 17.773438 10.117188 17.996094 10.117188 18.214844 10.117188 18.394531 9.9375 18.394531 9.71875 18.394531 8.390625 19.472656 7.316406 20.796875 7.316406 22.121094 7.316406 23.199219 8.390625 23.199219 9.71875 23.199219 9.9375 23.378906 10.117188 23.601562 10.117188 23.820312 10.117188 24 9.9375 24 9.71875 24 8.082031 22.769531 6.734375 21.1875 6.539062zM8.316406 2.191406C10.042969 2.191406 11.617188 3.039062 12.574219 4.476562 12.40625 4.773438 12.273438 5.089844 12.175781 5.421875 12.167969 5.453125 12.160156 5.484375 12.152344 5.519531 12.117188 5.640625 12.089844 5.765625 12.066406 5.894531 12.054688 5.949219 12.050781 6.003906 12.039062 6.0625 12.027344 6.164062 12.015625 6.269531 12.007812 6.378906 12.003906 6.410156 11.996094 6.445312 11.996094 6.476562 11.777344 6.480469 11.554688 6.507812 11.332031 6.558594 11.21875 6.585938 11.109375 6.617188 11.003906 6.65625 10.988281 6.660156 10.96875 6.671875 10.953125 6.675781 10.863281 6.710938 10.777344 6.746094 10.691406 6.785156 10.671875 6.792969 10.65625 6.804688 10.636719 6.8125 10.554688 6.851562 10.476562 6.894531 10.398438 6.941406 10.378906 6.957031 10.359375 6.96875 10.339844 6.984375 10.265625 7.027344 10.195312 7.078125 10.128906 7.128906 10.105469 7.148438 10.082031 7.167969 10.058594 7.183594 10 7.234375 9.9375 7.285156 9.882812 7.339844 9.855469 7.363281 9.832031 7.386719 9.804688 7.414062 9.753906 7.464844 9.703125 7.515625 9.65625 7.570312 9.632812 7.601562 9.605469 7.632812 9.578125 7.664062 9.539062 7.714844 9.496094 7.769531 9.457031 7.824219 9.433594 7.859375 9.410156 7.894531 9.382812 7.929688 9.347656 7.988281 9.316406 8.042969 9.28125 8.101562 9.269531 8.125 9.25 8.148438 9.238281 8.175781 9.214844 8.171875 9.191406 8.171875 9.167969 8.164062 9.097656 8.152344 9.03125 8.148438 8.964844 8.140625 8.882812 8.128906 8.796875 8.121094 8.714844 8.117188 8.644531 8.117188 8.574219 8.117188 8.503906 8.117188 8.421875 8.121094 8.34375 8.125 8.261719 8.136719 8.191406 8.140625 8.125 8.152344 8.054688 8.164062 7.976562 8.175781 7.898438 8.195312 7.820312 8.214844 7.753906 8.230469 7.6875 8.25 7.621094 8.269531 7.542969 8.296875 7.464844 8.328125 7.390625 8.359375 7.328125 8.382812 7.265625 8.410156 7.203125 8.4375 7.128906 8.476562 7.054688 8.519531 6.980469 8.5625 6.925781 8.597656 6.867188 8.628906 6.816406 8.664062 6.734375 8.71875 6.660156 8.78125 6.582031 8.84375 6.542969 8.878906 6.496094 8.910156 6.457031 8.945312 6.34375 9.046875 6.234375 9.160156 6.132812 9.28125 6.066406 9.363281 6.003906 9.445312 5.949219 9.53125 5.929688 9.558594 5.917969 9.582031 5.902344 9.605469 5.863281 9.667969 5.824219 9.734375 5.789062 9.796875 5.773438 9.824219 5.757812 9.855469 5.746094 9.882812 5.714844 9.945312 5.683594 10.011719 5.65625 10.074219 5.644531 10.105469 5.632812 10.132812 5.621094 10.160156 5.59375 10.226562 5.570312 10.296875 5.550781 10.363281 5.542969 10.390625 5.535156 10.417969 5.527344 10.445312 5.507812 10.515625 5.488281 10.589844 5.472656 10.660156 5.46875 10.6875 5.460938 10.714844 5.457031 10.742188 5.445312 10.8125 5.433594 10.882812 5.425781 10.953125 5.421875 10.984375 5.417969 11.015625 5.417969 11.042969 5.414062 11.109375 5.410156 11.175781 5.40625 11.242188 5.40625 11.277344 5.40625 11.316406 5.40625 11.351562 5.40625 11.367188 5.40625 11.378906 5.40625 11.394531 5.335938 11.382812 5.261719 11.371094 5.191406 11.359375 3.921875 10.382812 3.195312 8.914062 3.195312 7.3125 3.195312 4.488281 5.492188 2.191406 8.316406 2.191406zM8.316406 2.191406"/>
</svg>

<svg xmlns="http://www.w3.org/2000/svg" width="32" height="32" viewBox="0 0 24 24">
    <path d="M14.781 19.254a.408.408 0 0 0-.371-.25h-1.433l3.316-3.317a.394.394 0 0 0 0-.566.396.396 0 0 0-.563 0l-4.003 4a.37.37 0 0 0-.086.133.406.406 0 0 0 .215.523c.05.02.101.028.152.028h1.437l-2.12 2.12a.4.4 0 0 0 .566.567l2.8-2.8a.443.443 0 0 0 .09-.133.41.41 0 0 0 0-.305zm0 0M20.531 13.52l-4 4a.443.443 0 0 0-.09.132.41.41 0 0 0 0 .305.408.408 0 0 0 .371.25h1.434l-2.117 2.117a.4.4 0 0 0 .566.567l2.801-2.801a.37.37 0 0 0 .086-.133.406.406 0 0 0-.215-.523.419.419 0 0 0-.152-.028h-1.438l3.32-3.32a.4.4 0 0 0-.566-.566zm0 0M21.188 6.54a4.603 4.603 0 0 0-4.594-4.43 4.593 4.593 0 0 0-3.54 1.663 5.867 5.867 0 0 0-4.738-2.382 5.928 5.928 0 0 0-5.921 5.921c0 1.547.593 2.981 1.644 4.07a4.592 4.592 0 0 0-3.371 2.184 4.61 4.61 0 0 0 1.543 6.325.404.404 0 0 0 .55-.133.403.403 0 0 0-.132-.551 3.812 3.812 0 0 1-1.277-5.227 3.791 3.791 0 0 1 4.203-1.703c.18.575.52 1.102 1.015 1.512a.393.393 0 0 0 .563-.055.398.398 0 0 0-.055-.562 2.384 2.384 0 0 1-.793-1.25c0-.008-.004-.016-.004-.02-.008-.027-.015-.05-.02-.078a2.36 2.36 0 0 1-.054-.523c0-.024.004-.047.004-.067 0-.062.004-.12.012-.18.004-.034.007-.074.015-.109l.024-.136c.008-.04.02-.079.027-.118.012-.043.027-.082.04-.125.01-.039.026-.078.038-.113.02-.043.035-.086.055-.129.016-.035.031-.07.047-.101l.082-.141.047-.082a2.44 2.44 0 0 1 1.328-.988c.328-.098.68-.121 1.027-.07a3.177 3.177 0 0 0-.008 1.472.404.404 0 0 0 .485.297.4.4 0 0 0 .297-.48 2.422 2.422 0 0 1 .09-1.399l.003-.008c.008-.02.02-.039.028-.058a1.61 1.61 0 0 1 .132-.27c.032-.059.067-.117.106-.176.016-.015.027-.035.039-.054a2.07 2.07 0 0 1 .367-.399c.008-.008.016-.012.024-.02.058-.05.12-.097.187-.144.016-.012.035-.023.05-.035.06-.035.122-.07.18-.106.024-.011.044-.023.067-.035.059-.027.121-.054.188-.082.019-.008.042-.015.066-.023.082-.031.168-.059.254-.078.004 0 .004-.004.008-.004.132-.031.265-.047.402-.055l.016-.004c.136-.004.277 0 .418.016l.12.016c.923.16 1.704.851 1.93 1.816a.401.401 0 0 0 .782-.184A3.206 3.206 0 0 0 12.8 6.566c.004-.113.011-.226.023-.34.008-.035.012-.07.02-.109.023-.144.05-.285.09-.426l.011-.043c.051-.164.11-.328.18-.484.004-.004.004-.012.008-.016.07-.152.148-.3.238-.445l.043-.066.035-.059a3.806 3.806 0 0 1 3.145-1.668 3.805 3.805 0 0 1 3.793 3.633 3.209 3.209 0 0 0-2.793 3.176.401.401 0 0 0 .8 0 2.403 2.403 0 0 1 4.805 0 .401.401 0 0 0 .801 0 3.208 3.208 0 0 0-2.813-3.18zM8.316 2.19c1.727 0 3.301.848 4.258 2.286-.168.296-.3.613-.398.945l-.024.098a3.75 3.75 0 0 0-.086.375c-.011.054-.015.109-.027.168a7.239 7.239 0 0 0-.031.316c-.004.031-.012.066-.012.098a3.25 3.25 0 0 0-.664.082 2.905 2.905 0 0 0-.328.097c-.016.004-.035.016-.05.02a5.25 5.25 0 0 0-.263.11c-.02.007-.035.019-.054.027-.082.039-.16.082-.239.128l-.058.043a2.009 2.009 0 0 0-.281.2c-.059.05-.121.101-.176.156-.028.023-.051.047-.078.074-.051.05-.102.102-.149.156-.023.032-.05.063-.078.094-.039.05-.082.106-.121.16-.023.035-.047.07-.074.106l-.102.172c-.011.023-.031.046-.043.074-.023-.004-.047-.004-.07-.012-.07-.012-.137-.016-.203-.023a2.703 2.703 0 0 0-.25-.024h-.211c-.082.004-.16.008-.242.02a2.512 2.512 0 0 0-.441.078c-.067.015-.133.035-.2.055a4.033 4.033 0 0 0-.23.09c-.063.023-.125.05-.188.078-.074.039-.148.082-.223.124-.054.036-.113.067-.164.102-.082.055-.156.117-.234.18-.039.035-.086.066-.125.101a3.307 3.307 0 0 0-.324.336 2.73 2.73 0 0 0-.184.25c-.02.028-.031.051-.047.074-.039.063-.078.13-.113.192a4.215 4.215 0 0 0-.133.277 2.087 2.087 0 0 0-.105.29l-.024.081c-.02.07-.039.145-.054.215-.004.027-.012.055-.016.082-.012.07-.023.14-.031.211-.004.031-.008.063-.008.09l-.012.2v.152l-.215-.036a5.062 5.062 0 0 1-1.996-4.046A5.126 5.126 0 0 1 8.316 2.19zm0 0"/>
</svg>
